modules/feathericon/icons/angry.svg

<?xml version="1.0" encoding="UTF-8"?>
<svg width="24px" height="24px" viewBox="0 0 24 24" version="1.1" xmlns="http://www.w3.org/2000/svg" xmlns:xlink="http://www.w3.org/1999/xlink">
    <!-- Generator: sketchtool 52.2 (67145) - http://www.bohemiancoding.com/sketch -->
    <title>angry</title>
    <desc>Created with sketchtool.</desc>
    <g id="people" stroke="none" stroke-width="1" fill="none" fill-rule="evenodd">
        <g id="angry" fill="#000000">
            <path d="M12,22 C6.4771525,22 2,17.5228475 2,12 C2,6.4771525 6.4771525,2 12,2 C17.5228475,2 22,6.4771525 22,12 C22,17.5228475 17.5228475,22 12,22 Z M12,20 C16.418278,20 20,16.418278 20,12 C20,7.581722 16.418278,4 12,4 C7.581722,4 4,7.581722 4,12 C4,16.418278 7.581722,20 12,20 Z M16,17 L14.6611201,17 C14.6611201,17 14.2442153,14.3333333 12,14.3333333 C9.75578467,14.3333333 9.33333333,17 9.33333333,17 L8,17 C8,14.790861 9.790861,13 12,13 C14.209139,13 16,14.790861 16,17 Z M10.506405,8.98983837 C10.7565765,9.25783918 10.909675,9.61762369 10.909675,10.0131663 C10.909675,10.8415934 10.2381021,11.5131663 9.40967501,11.5131663 C8.58124788,11.5131663 7.90967501,10.8415934 7.90967501,10.0131663 C7.90967501,9.33142915 8.36447289,8.75591575 8.98721669,8.57347804 L7.329126,7.96998239 C7.06963705,7.87553613 6.93584351,7.58861496 7.03028977,7.329126 C7.12473602,7.06963705 7.4116572,6.93584351 7.67114615,7.03028977 L10.490224,8.0563502 C10.749713,8.15079645 10.8835065,8.43771763 10.7890602,8.69720658 C10.7386018,8.83584008 10.6332053,8.93859642 10.506405,8.98983837 Z M13.40327,8.98983837 C13.2764697,8.93859642 13.1710732,8.83584008 13.1206148,8.69720658 C13.0261685,8.43771763 13.159962,8.15079645 13.419451,8.0563502 L16.2385289,7.03028977 C16.4980178,6.93584351 16.784939,7.06963705 16.8793852,7.329126 C16.9738315,7.58861496 16.840038,7.87553613 16.580549,7.96998239 L14.9224583,8.57347804 C15.5452021,8.75591575 16,9.33142915 16,10.0131663 C16,10.8415934 15.3284271,11.5131663 14.5,11.5131663 C13.6715729,11.5131663 13,10.8415934 13,10.0131663 C13,9.61762369 13.1530985,9.25783918 13.40327,8.98983837 Z" id="Shape"></path>
        </g>
    </g>
</svg>

<svg width="24" height="24" viewBox="0 0 24 24" xmlns="http://www.w3.org/2000/svg"><path d="M12 22C6.477 22 2 17.523 2 12S6.477 2 12 2s10 4.477 10 10-4.477 10-10 10zm0-2a8 8 0 1 0 0-16 8 8 0 0 0 0 16zm4-3h-1.339s-.417-2.667-2.661-2.667S9.333 17 9.333 17H8a4 4 0 1 1 8 0zm-5.494-8.01a1.5 1.5 0 1 1-1.52-.416L7.33 7.97a.5.5 0 0 1 .342-.94l2.82 1.026a.5.5 0 0 1 .015.934zm2.897 0a.499.499 0 0 1 .016-.934l2.82-1.026a.5.5 0 1 1 .342.94l-1.659.603a1.5 1.5 0 1 1-1.519.417z" fill="#000" fill-rule="evenodd"/></svg>
